X: 1
M: C|
L: 1/8
K: Bb
V: 1
!segno!|:\
d2dB ~d2~d2 | ddfd TB2TB2 |
c2cA ccTc2 | FGFE EDCB, ::\
deff [fd][fd][fd][fd] | fbag gfed |\
eege fdcB | cgfe edcB !segno!:|
V: 2 clef=bass middle=d
!segno!|:\
[b2B2][b2B2] b2b2 | b2b2 d2d2 |\
e2e2 G2G2 | e2f2 "^Fine."B4 ::\
[b2d2][b2d2] [b2d2][b2d2] | [b2d2][b2d2] [b2d2][b2d2] |\
[b2e2][b2e2] [b2d2][b2d2] | f2a2 b2b2 !segno!:|


